X: 76
T:Leamington Dance, The
M:2/4
L:1/8
K:D
%%text played AABA
%%text A
A|+segno+ "D"dd fa/f/|dd fa/f/|"G"gb/g/ "Em"eg/e/|"A"ce/c/ AA|
"D"dd fa/f/|dd fa/f/|"G"g/b/g/e/ "A"ce/c/|"Fine" "D"d3:|
%%text B
c/d/|"A"ee "D"a/^g/a/f/|"A"e/f/e/d/ cc/e/|"E"e/d/c/d/ BB/d/|"A"d/c/B/c/ ac/d/|
"A"ee "D"a/^g/a/f/|"A"e/^g/a/b/ c'/b/a/g/|"D"ff "E"^gg|"A"a>f "A7"a/g/e/c/ "DS" "al Fine"||

